assets/img/icons/duotone-icons/Media/Playlist#1.svg

<?xml version="1.0" encoding="UTF-8"?>
<svg width="24px" height="24px" viewBox="0 0 24 24" version="1.1" xmlns="http://www.w3.org/2000/svg" xmlns:xlink="http://www.w3.org/1999/xlink">
    <!-- Generator: Sketch 52.2 (67145) - http://www.bohemiancoding.com/sketch -->
    <title>Stockholm-icons / Media / Playlist#1</title>
    <desc>Created with Sketch.</desc>
    <g id="Stockholm-icons-/-Media-/-Playlist#1" stroke="none" stroke-width="1" fill="none" fill-rule="evenodd">
        <rect id="bound" x="0" y="0" width="24" height="24"></rect>
        <path d="M8.97852058,18.8007059 C8.80029331,20.0396328 7.53473012,21 6,21 C4.34314575,21 3,19.8807119 3,18.5 C3,17.1192881 4.34314575,16 6,16 C6.35063542,16 6.68722107,16.0501285 7,16.1422548 L7,5.93171093 C7,5.41893942 7.31978104,4.96566617 7.78944063,4.81271925 L13.5394406,3.05418311 C14.2638626,2.81827161 15,3.38225531 15,4.1731748 C15,4.95474642 15,5.54092513 15,5.93171093 C15,6.51788965 14.4511634,6.89225606 14,7 C13.3508668,7.15502181 11.6842001,7.48835515 9,8 L9,18.5512168 C9,18.6409956 8.9927193,18.7241187 8.97852058,18.8007059 Z" id="Combined-Shape" fill="#335EEA"></path>
        <path d="M16,9 L20,9 C20.5522847,9 21,9.44771525 21,10 C21,10.5522847 20.5522847,11 20,11 L16,11 C15.4477153,11 15,10.5522847 15,10 C15,9.44771525 15.4477153,9 16,9 Z M14,13 L20,13 C20.5522847,13 21,13.4477153 21,14 C21,14.5522847 20.5522847,15 20,15 L14,15 C13.4477153,15 13,14.5522847 13,14 C13,13.4477153 13.4477153,13 14,13 Z M14,17 L20,17 C20.5522847,17 21,17.4477153 21,18 C21,18.5522847 20.5522847,19 20,19 L14,19 C13.4477153,19 13,18.5522847 13,18 C13,17.4477153 13.4477153,17 14,17 Z" id="Combined-Shape" fill="#335EEA" opacity="0.3"></path>
    </g>
</svg>

<svg width="24" height="24" viewBox="0 0 24 24" xmlns="http://www.w3.org/2000/svg"><g fill="none" fill-rule="evenodd"><path d="M0 0h24v24H0z"/><path d="M8.979 18.8C8.8 20.04 7.535 21 6 21c-1.657 0-3-1.12-3-2.5S4.343 16 6 16c.35 0 .687.05 1 .142V5.932c0-.513.32-.966.79-1.12l5.75-1.758c.724-.236 1.46.328 1.46 1.12v1.758c0 .586-.549.96-1 1.068-.65.155-2.316.488-5 1v10.551c0 .09-.007.173-.021.25z" fill="#335EEA"/><path d="M16 9h4a1 1 0 010 2h-4a1 1 0 010-2zm-2 4h6a1 1 0 010 2h-6a1 1 0 010-2zm0 4h6a1 1 0 010 2h-6a1 1 0 010-2z" fill="#335EEA" opacity=".3"/></g></svg>
